assets/images/vector/icons/cloud_icon.svg

<svg fill="none" height="49" viewBox="0 0 59 49" width="59" xmlns="http://www.w3.org/2000/svg"><g stroke="#111" stroke-linecap="round" stroke-linejoin="round" stroke-width="10"><path d="m44.0467 18.8033c-.62-7.7133-7.0067-13.8033-14.88-13.8033-8.2834 0-15 6.7167-15 15 0 1.1667.1633 2.2867.4133 3.3767-5.32333.2233-9.58 4.58-9.58 9.9566 0 5.5234 4.47667 10 10 10h25.8333c6.9034 0 12.5-5.5966 12.5-12.5 0-5.7866-3.95-10.6066-9.2866-12.03z"/><path d="m31.5176 22.4999c2.29-2.5566 5.6133-4.1666 9.3166-4.1666 1.11 0 2.19.1966 3.2134.47"/></g></svg>

<svg width="59" height="49" viewBox="0 0 59 49" fill="none" xmlns="http://www.w3.org/2000/svg">
<path d="M44.0467 18.8033C43.4267 11.09 37.04 5 29.1667 5C20.8833 5 14.1667 11.7167 14.1667 20C14.1667 21.1667 14.33 22.2867 14.58 23.3767C9.25667 23.6 5 27.9567 5 33.3333C5 38.8567 9.47667 43.3333 15 43.3333H40.8333C47.7367 43.3333 53.3333 37.7367 53.3333 30.8333C53.3333 25.0467 49.3833 20.2267 44.0467 18.8033Z" stroke="#111111" stroke-width="10" stroke-linecap="round" stroke-linejoin="round"/>
<path d="M31.5176 22.4999C33.8076 19.9433 37.1309 18.3333 40.8342 18.3333C41.9442 18.3333 43.0242 18.5299 44.0476 18.8033" stroke="#111111" stroke-width="10" stroke-linecap="round" stroke-linejoin="round"/>
</svg>
